assets/Person fairy/Medium/Flat/person_fairy_flat_medium.svg

<svg width="32" height="32" viewBox="0 0 32 32" fill="none" xmlns="http://www.w3.org/2000/svg">
<path d="M21.0656 4.93075C20.0128 4.75787 18.8951 5.0777 18.0825 5.89025L15.4192 8.54569L12.7938 5.92028C11.4538 4.58028 9.28378 4.58028 7.94378 5.92028C6.60378 7.26028 6.60378 9.43028 7.94378 10.7703L11.3138 14.1403C11.3247 14.1512 11.3357 14.1621 11.3468 14.1729L11.0469 14.4728C10.1937 15.3259 10.1937 16.72 11.0469 17.5731C11.9 18.4262 13.2941 18.4262 14.1472 17.5731L15.535 16.1853L16.91 17.5603C17.7802 18.4305 19.2021 18.4305 20.0722 17.5603C20.9423 16.6902 20.9423 15.2683 20.0722 14.3982L19.6684 13.9944L22.9225 10.7403C24.2725 9.40025 24.2725 7.23025 22.9325 5.89025C22.886 5.84376 22.8385 5.79887 22.7901 5.7556L22.2529 5.48062C22.2071 5.45773 22.1499 5.45773 22.0927 5.48062L21.1431 5.98404C21.0287 6.04124 20.8914 5.93827 20.9143 5.80098L21.0656 4.93075Z" fill="#75E0FC"/>
<path d="M10.7838 6.24988C10.7719 6.15396 10.6845 6.08587 10.5886 6.09779C10.4927 6.10971 10.4246 6.19712 10.4365 6.29303L10.6259 7.81737L9.52623 6.81881C9.45468 6.75384 9.34401 6.75917 9.27903 6.83073C9.21406 6.90228 9.21939 7.01295 9.29095 7.07793L13.5072 10.9065C13.6462 10.8737 13.7866 10.8504 13.9284 10.8342C13.9189 10.8139 13.9053 10.7952 13.8878 10.7793L11.0235 8.17836L10.7838 6.24988ZM17.4216 10.8932C17.2988 10.8651 17.1781 10.8447 17.0568 10.8302C17.0563 10.7816 17.0759 10.733 17.115 10.698L19.8461 8.2508L20.1076 6.30409C20.1204 6.2083 20.2085 6.14108 20.3043 6.15395C20.4001 6.16682 20.4673 6.2549 20.4545 6.35069L20.2475 7.89105L21.445 6.81805C21.517 6.75355 21.6276 6.75961 21.6921 6.83159C21.7566 6.90357 21.7505 7.01421 21.6786 7.07871L17.4216 10.8932ZM19.3665 11.6516L19.0054 11.503L21.091 9.67124C21.1169 9.71574 21.1478 9.75756 21.1831 9.79582C21.2285 9.84513 21.2656 9.89992 21.2944 9.95841L19.8524 11.2249L20.871 11.307C20.9673 11.3148 21.0391 11.3992 21.0313 11.4955C21.0236 11.5919 20.9392 11.6637 20.8428 11.6559L19.6028 11.5559C19.5693 11.5532 19.5387 11.5412 19.5134 11.5226L19.3665 11.6516ZM12.2353 11.7714C12.1803 11.8326 12.124 11.8959 12.0665 11.9607C12.0453 11.9845 12.024 12.0086 12.0025 12.0327L11.4714 11.5503L11.469 11.5505L10.219 11.6505C10.1226 11.6582 10.0383 11.5864 10.0306 11.49C10.0229 11.3937 10.0947 11.3093 10.1911 11.3016L11.1162 11.2276L9.2394 9.52265C9.16786 9.45766 9.16255 9.34698 9.22754 9.27544C9.29253 9.20391 9.4032 9.1986 9.47474 9.26358L12.2353 11.7714Z" fill="white"/>
<path d="M22.4441 9.01178C22.4441 8.82844 22.5927 8.67999 22.776 8.67999C22.9698 8.67999 23.1223 8.84519 23.107 9.03831L23.0238 10.0824C23.0022 10.7298 22.9541 12.4567 22.9222 13.6192C22.9049 14.2506 22.3881 14.7526 21.7565 14.7526C21.6037 14.7526 21.4525 14.7225 21.3113 14.6642L18.4094 13.4652C18.3535 13.4421 18.292 13.4832 18.292 13.5437V13.886C18.292 15.2933 18.292 15.9969 18.3899 16.6914C18.4878 17.3858 18.6823 18.0621 19.0713 19.4145L19.6306 21.3591C19.748 21.7672 19.6869 22.2061 19.4624 22.5666L16.3236 27.6073C16.2178 27.7772 15.9654 27.7602 15.8833 27.5778L15.2448 26.1583C15.2088 26.0782 15.2093 25.9873 15.2466 25.9079C15.5082 25.3513 16.582 23.0557 17.1376 21.7101C17.1873 21.5897 17.1864 21.4554 17.137 21.3348L15.9316 18.3943C15.8315 18.1503 15.4707 18.2074 15.451 18.4705L14.662 29.0067C14.6539 29.1137 14.5894 29.2082 14.4928 29.2547L13.1711 29.89C13.0051 29.9697 12.8128 29.8488 12.8128 29.6646L12.7999 14.395C12.7997 14.2607 12.7997 14.1935 12.7647 14.1697C12.7557 14.1636 12.7455 14.1593 12.7347 14.1573C12.6932 14.1494 12.6456 14.1968 12.5505 14.2917V14.2917C12.5505 14.2917 11.8614 14.9617 10.8942 15.4517C10.0046 15.9023 9.12509 15.8962 8.5617 15.8923C8.51245 15.892 8.46563 15.8917 8.42142 15.8917C7.87142 15.8917 7.17456 15.6957 7.17456 15.6957C7.17456 15.6957 6.87378 16.0395 6.3806 15.8817C6.22969 16.0654 5.98303 16.274 5.72142 16.0902C5.24876 15.7582 5.63218 15.0563 5.85829 14.7987C6.2013 14.3901 6.83161 13.9717 7.39324 13.9717C7.59879 13.9612 7.80034 13.9602 8.00209 13.9591C8.56942 13.9562 9.13834 13.9533 9.80234 13.7408C10.7568 13.4352 11.4795 12.6216 12.0665 11.9607C12.4466 11.5328 12.7697 11.169 13.062 11.0486C13.572 10.8386 14.0982 10.7994 14.6482 10.7994H16.4682C17.0882 10.7994 17.6001 10.8732 18.292 11.2095L21.002 12.3246C21.0519 12.0744 21.2504 11.011 21.3565 10.4412C21.3997 10.2097 21.3425 9.96901 21.1831 9.79582V9.79582C21.0707 9.67383 21.0021 9.51568 21.0021 9.34986L21.0022 8.55604C21.0022 8.32161 21.1937 8.13234 21.4281 8.13504C21.6691 8.13781 21.8626 8.34196 21.8616 8.58296C21.8603 8.87021 21.8638 9.12171 21.8669 9.35727C21.869 9.51485 21.9975 9.64074 22.1551 9.64074C22.3147 9.64074 22.4441 9.51148 22.4441 9.35186V9.01178Z" fill="#BB806E"/>
<path d="M14.7377 27.9953L14.662 29.0066C14.6539 29.1136 14.5894 29.2081 14.4928 29.2546L13.1711 29.8899C13.0051 29.9696 12.8128 29.8487 12.8128 29.6645L12.8115 28.1826L14.7377 27.9953ZM16.9406 26.6164L16.3236 27.6072C16.2178 27.7771 15.9654 27.7601 15.8834 27.5777L15.2448 26.1582C15.2088 26.0781 15.2093 25.9872 15.2466 25.9078C15.34 25.7091 15.5368 25.2888 15.7767 24.7693L16.9406 26.6164Z" fill="#635994"/>
<path d="M14.011 4.61961L13.733 4.89696C13.6319 4.99783 13.5112 5.07697 13.3784 5.12952C12.8573 5.33567 12.5905 5.91524 12.7728 6.44513L12.8897 6.7848C12.9388 6.92751 12.9649 7.07712 12.967 7.22802L12.9897 8.83508C12.9977 9.40396 13.4611 9.86092 14.03 9.86092H17.03C17.6054 9.86092 18.0718 9.39449 18.0718 8.81912V7.28572C18.0718 7.09793 18.1152 6.91269 18.1987 6.74446L18.2558 6.62926C18.5529 6.03025 18.2544 5.30666 17.6214 5.09132C17.4457 5.03155 17.2879 4.92852 17.1625 4.79171L17.0327 4.65017C16.7213 4.31048 16.2533 4.16125 15.8027 4.25803C15.623 4.29665 15.4371 4.29665 15.2574 4.25806L15.2468 4.25579C14.7998 4.15982 14.3347 4.29676 14.011 4.61961Z" fill="#593B39"/>
<path d="M16.53 10.0004C16.53 10.055 16.53 12.9866 16.53 12.9866L14.53 13.0002V10.0002L16.53 10.0004Z" fill="#B87A66"/>
<path d="M14.0619 8.00005C14.0619 8.38665 13.7485 8.70005 13.3619 8.70005C12.9753 8.70005 12.6619 8.38665 12.6619 8.00005C12.6619 7.61345 12.9753 7.30005 13.3619 7.30005C13.7485 7.30005 14.0619 7.61345 14.0619 8.00005ZM18.3521 8.00005C18.3521 8.38665 18.0387 8.70005 17.6521 8.70005C17.2655 8.70005 16.9521 8.38665 16.9521 8.00005C16.9521 7.61345 17.2655 7.30005 17.6521 7.30005C18.0387 7.30005 18.3521 7.61345 18.3521 8.00005Z" fill="#B87A66"/>
<path d="M17.7866 7.22736V6.81281C17.7763 6.48172 17.5073 6.20236 17.1762 6.19202H16.5657C16.1519 6.19202 15.7691 5.9437 15.5932 5.56087C15.5518 5.44706 15.4483 5.37463 15.3242 5.37463H14.7654C13.9584 5.37463 13.2839 6.02132 13.2839 6.82836L13.2471 7.1456L13.3978 9.35109C13.5124 10.1815 14.2421 10.7993 15.1072 10.7993H15.9411C16.8063 10.7993 17.5359 10.1815 17.6506 9.35109L17.7866 7.22736Z" fill="#C68D7B"/>
<path d="M22.5245 5.3335H21.8327V9.36373C21.8327 9.53084 21.9915 9.66846 22.1843 9.66846C22.377 9.66846 22.5358 9.53084 22.5358 9.36373V5.3335H22.5245Z" fill="#75443E"/>
<path d="M22.333 2.36881L22.8021 3.32988C22.825 3.37565 22.8707 3.40997 22.9279 3.42141L23.992 3.57015C24.1293 3.59303 24.1865 3.75321 24.0835 3.85618L23.317 4.59987C23.2826 4.6342 23.2598 4.69141 23.2712 4.74861L23.4543 5.80122C23.4771 5.93852 23.3398 6.04149 23.214 5.97284L22.2529 5.48086C22.2071 5.45798 22.1499 5.45798 22.0927 5.48086L21.1431 5.98428C21.0287 6.04149 20.8914 5.93852 20.9143 5.80122L21.0973 4.74861C21.1088 4.69141 21.0859 4.6342 21.0516 4.59987L20.285 3.85618C20.182 3.76465 20.2392 3.59303 20.3765 3.57015L21.4291 3.42141C21.4863 3.40997 21.5321 3.37565 21.555 3.32988L22.0241 2.36881C22.0927 2.24295 22.2644 2.24295 22.333 2.36881Z" fill="#FCD53F"/>
<path d="M12.8063 22.0078L12.8012 16.0103H18.3235C18.338 16.2527 18.3591 16.4725 18.39 16.6914C18.4878 17.3858 18.6823 18.062 19.0713 19.4145L19.0713 19.4145L19.4044 20.5724L17.0404 21.0991L15.9316 18.3943C15.8316 18.1503 15.4707 18.2074 15.451 18.4705L15.1861 22.0078H12.8063Z" fill="#FF6723"/>
<path d="M16.5288 10.7996C17.0634 10.804 17.523 10.8692 18.0986 11.1202C18.2072 11.2783 18.2716 11.4692 18.2737 11.6753L18.2932 13.5296C18.2924 13.5341 18.292 13.5388 18.292 13.5437V13.886C18.292 14.7923 18.292 15.4068 18.3182 15.9149L18.3191 16.0002H12.8012L12.7999 14.3949C12.7998 14.2864 12.7997 14.2217 12.7812 14.1883V11.735C12.7812 11.472 12.8828 11.2327 13.0487 11.0542C13.0532 11.0523 13.0576 11.0504 13.062 11.0486C13.5351 10.8538 14.0221 10.8059 14.5291 10.8L15.1757 12.0273C15.3258 12.3122 15.7339 12.312 15.8837 12.027L16.5288 10.7996Z" fill="#FF6723"/>
<path d="M12.8015 16.4084L12.8008 15.5742H18.3048C18.3138 15.8868 18.3292 16.1542 18.3554 16.4084H12.8015Z" fill="#C3EF3C"/>
<path d="M15.365 8.0055L15.145 8.7155C15.105 8.8655 15.215 9.0155 15.365 9.0155H15.695C15.845 9.0155 15.955 8.8655 15.915 8.7255L15.695 8.0155C15.635 7.8455 15.415 7.8455 15.365 8.0055Z" fill="#AB6A55"/>
<path d="M15.53 9.35078C15.3 9.35078 15.09 9.30078 14.91 9.20078C14.85 9.17078 14.78 9.24078 14.82 9.30078C14.98 9.53078 15.24 9.68078 15.53 9.68078C15.83 9.68078 16.09 9.53078 16.24 9.30078C16.28 9.24078 16.21 9.17078 16.15 9.20078C15.97 9.29078 15.76 9.35078 15.53 9.35078Z" fill="#990838"/>
<path d="M13.9181 7.86016C13.9881 7.60016 14.2181 7.41016 14.4981 7.41016C14.7881 7.41016 15.0281 7.61016 15.0881 7.88016C15.0981 7.94016 15.0481 8.00016 14.9881 8.00016H14.0381C13.9681 8.00016 13.9081 7.93016 13.9181 7.86016ZM17.1232 7.86016C17.0532 7.60016 16.8232 7.41016 16.5432 7.41016C16.2532 7.41016 16.0132 7.61016 15.9632 7.88016C15.9532 7.94016 16.0032 8.00016 16.0632 8.00016H17.0132C17.0832 8.00016 17.1432 7.93016 17.1232 7.86016Z" fill="white"/>
<path d="M14.2083 7.90026C14.2083 7.69026 14.3783 7.52026 14.5883 7.52026C14.7983 7.52026 14.9683 7.69026 14.9583 7.90026V7.90027C14.9583 7.93027 14.9583 7.97027 14.9483 8.00026H14.2183C14.2183 7.98526 14.2158 7.96776 14.2133 7.95026C14.2108 7.93276 14.2083 7.91526 14.2083 7.90026ZM16.8334 7.90026C16.8334 7.69026 16.6634 7.52026 16.4534 7.52026C16.2434 7.52026 16.0734 7.69026 16.0834 7.90026C16.0834 7.93026 16.0834 7.97026 16.0934 8.00026H16.8234C16.8234 7.98526 16.8259 7.96776 16.8284 7.95026C16.8309 7.93276 16.8334 7.91526 16.8334 7.90026Z" fill="#7D4533"/>
<path d="M14.5882 7.68018C14.7082 7.68018 14.8082 7.78018 14.8082 7.90018C14.8082 7.94018 14.7982 7.97018 14.7682 8.00018H14.3882L14.3882 8.00017C14.3782 7.97017 14.3682 7.94017 14.3682 7.90018C14.3682 7.78018 14.4682 7.68018 14.5882 7.68018ZM16.4634 7.68018C16.3434 7.68018 16.2434 7.78018 16.2434 7.90018C16.2434 7.94018 16.2534 7.97018 16.2834 8.00018H16.6634C16.6734 7.97018 16.6834 7.94018 16.6834 7.90018C16.6834 7.78018 16.5834 7.68018 16.4634 7.68018Z" fill="black"/>
<path d="M14.5282 7.75018C14.5282 7.78884 14.4968 7.82018 14.4582 7.82018C14.4195 7.82018 14.3882 7.78884 14.3882 7.75018C14.3882 7.71152 14.4195 7.68018 14.4582 7.68018C14.4968 7.68018 14.5282 7.71152 14.5282 7.75018ZM16.4132 7.75018C16.4132 7.78884 16.3819 7.82018 16.3432 7.82018C16.3045 7.82018 16.2732 7.78884 16.2732 7.75018C16.2732 7.71152 16.3045 7.68018 16.3432 7.68018C16.3819 7.68018 16.4132 7.71152 16.4132 7.75018Z" fill="white"/>
<path d="M17.1225 6.81361L17.1206 6.81214L17.1168 6.8094L17.1042 6.80062C17.0935 6.79344 17.0785 6.78371 17.0594 6.77245C17.0211 6.74997 16.9661 6.72114 16.897 6.69417C16.7588 6.64029 16.5618 6.59297 16.3283 6.62076C16.2643 6.62838 16.2186 6.68644 16.2262 6.75044C16.2338 6.81444 16.2919 6.86015 16.3559 6.85253C16.5424 6.83032 16.7003 6.86801 16.8122 6.91162C16.868 6.9334 16.9118 6.95645 16.9411 6.97365C16.9557 6.98224 16.9665 6.98931 16.9734 6.99396L16.9806 6.99897L16.9817 6.99972C17.033 7.03855 17.1061 7.02848 17.1451 6.97718C17.184 6.92583 17.1739 6.85257 17.1225 6.81361ZM14.095 6.98982C14.0948 6.99003 14.0948 6.98997 14.095 6.98982ZM14.095 6.98982L14.0983 6.98694C14.1021 6.98372 14.1092 6.97812 14.1196 6.97101C14.1404 6.95683 14.1749 6.93655 14.2248 6.91724C14.324 6.87886 14.488 6.84275 14.7319 6.87001C14.796 6.87717 14.8537 6.83105 14.8609 6.767C14.868 6.70294 14.8219 6.64522 14.7578 6.63806C14.4783 6.60682 14.2764 6.64701 14.1406 6.69956C14.073 6.72571 14.0228 6.75456 13.9882 6.77813C13.9709 6.78991 13.9576 6.80034 13.9479 6.80843C13.9431 6.81248 13.9393 6.81594 13.9363 6.81869L13.9325 6.82227L13.9311 6.82363L13.9303 6.82445C13.9302 6.82461 14.069 6.96126 13.9303 6.82445C13.8851 6.87033 13.8853 6.94446 13.9312 6.98972C13.9767 7.03457 14.0496 7.03445 14.095 6.98982Z" fill="#593B39"/>
</svg>

<svg xmlns="http://www.w3.org/2000/svg" width="32" height="32" fill="none"><path fill="#75E0FC" d="M21.066 4.93a3.424 3.424 0 0 0-2.983.96l-2.664 2.656-2.625-2.626a3.428 3.428 0 0 0-4.85 0 3.428 3.428 0 0 0 0 4.85l3.37 3.37.033.033-.3.3a2.198 2.198 0 0 0 0 3.1 2.198 2.198 0 0 0 3.1 0l1.388-1.388 1.375 1.375c.87.87 2.292.87 3.162 0 .87-.87.87-2.292 0-3.162l-.404-.404 3.255-3.254a3.42 3.42 0 0 0-.133-4.984l-.537-.275a.195.195 0 0 0-.16 0l-.95.503c-.114.057-.252-.046-.229-.183l.152-.87Z"/><path fill="#fff" d="M10.784 6.25a.175.175 0 1 0-.348.043l.19 1.524-1.1-.998a.175.175 0 1 0-.235.259l4.216 3.828a3.62 3.62 0 0 1 .421-.072.173.173 0 0 0-.04-.055l-2.864-2.6-.24-1.93Zm6.638 4.643a3.477 3.477 0 0 0-.365-.063c0-.048.019-.097.058-.132l2.731-2.447.262-1.947a.175.175 0 1 1 .346.047l-.207 1.54 1.198-1.073a.175.175 0 1 1 .234.26l-4.257 3.815Zm1.944.759-.36-.149 2.085-1.832a.712.712 0 0 0 .092.125c.046.05.083.104.111.162l-1.442 1.267 1.019.082a.175.175 0 0 1-.028.349l-1.24-.1a.174.174 0 0 1-.09-.033l-.147.129Zm-7.13.12a40.45 40.45 0 0 0-.17.189l-.064.072-.53-.483h-.003l-1.25.1a.175.175 0 1 1-.028-.348l.925-.074L9.24 9.523a.175.175 0 0 1 .236-.26l2.76 2.508Z"/><path fill="#BB806E" d="M22.444 9.012a.332.332 0 1 1 .663.026l-.083 1.044c-.022.648-.07 2.375-.102 3.537a1.165 1.165 0 0 1-1.61 1.045l-2.903-1.199a.085.085 0 0 0-.117.079v.342c0 1.407 0 2.11.098 2.805.098.695.292 1.371.681 2.724l.56 1.944a1.5 1.5 0 0 1-.169 1.208l-3.138 5.04a.25.25 0 0 1-.44-.03l-.64-1.419a.299.299 0 0 1 .003-.25c.261-.557 1.335-2.852 1.89-4.198a.492.492 0 0 0 0-.375l-1.205-2.94c-.1-.245-.461-.188-.481.076l-.789 10.536a.3.3 0 0 1-.17.248l-1.32.635a.25.25 0 0 1-.36-.225l-.012-15.27c0-.134 0-.201-.035-.225a.08.08 0 0 0-.03-.013c-.042-.008-.09.04-.184.135 0 0-.69.67-1.657 1.16-.89.45-1.769.444-2.332.44h-.14c-.55 0-1.247-.196-1.247-.196s-.301.344-.794.186c-.151.183-.398.392-.66.208-.472-.332-.089-1.034.137-1.291.343-.409.974-.827 1.535-.827.206-.01.407-.012.61-.013.566-.003 1.135-.006 1.8-.218.954-.306 1.676-1.12 2.263-1.78.38-.428.704-.792.996-.912.51-.21 1.036-.25 1.586-.25h1.82c.62 0 1.132.074 1.824.41l2.71 1.116c.05-.25.248-1.314.355-1.884a.746.746 0 0 0-.174-.645.663.663 0 0 1-.18-.446v-.794c0-.234.19-.424.425-.421a.445.445 0 0 1 .434.448c-.002.287.002.539.005.774a.289.289 0 0 0 .577-.005v-.34Z"/><path fill="#635994" d="m14.738 27.995-.076 1.012a.3.3 0 0 1-.17.248l-1.32.635a.25.25 0 0 1-.36-.226v-1.481l1.926-.188Zm2.203-1.379-.617.991a.25.25 0 0 1-.44-.03l-.64-1.419a.299.299 0 0 1 .003-.25c.093-.199.29-.62.53-1.139l1.164 1.847Z"/><path fill="#593B39" d="m14.011 4.62-.278.277c-.101.1-.222.18-.355.233a1.048 1.048 0 0 0-.605 1.315l.117.34c.049.143.075.292.077.443l.023 1.607a1.04 1.04 0 0 0 1.04 1.026h3c.575 0 1.042-.467 1.042-1.042V7.286c0-.188.043-.373.127-.542l.057-.115a1.106 1.106 0 0 0-.635-1.538 1.105 1.105 0 0 1-.458-.3l-.13-.14a1.299 1.299 0 0 0-1.23-.393c-.18.039-.366.039-.546 0l-.01-.002a1.349 1.349 0 0 0-1.236.364Z"/><path fill="#B87A66" d="M16.53 10v2.987l-2 .013v-3h2ZM14.062 8a.7.7 0 1 1-1.4 0 .7.7 0 0 1 1.4 0Zm4.29 0a.7.7 0 1 1-1.4 0 .7.7 0 0 1 1.4 0Z"/><path fill="#C68D7B" d="M17.787 7.227v-.414a.642.642 0 0 0-.61-.621h-.611c-.414 0-.797-.248-.973-.631a.28.28 0 0 0-.269-.186h-.559c-.807 0-1.481.646-1.481 1.453l-.037.318.15 2.205c.115.83.845 1.448 1.71 1.448h.834c.865 0 1.595-.617 1.71-1.448l.136-2.124Z"/><path fill="#75443E" d="M22.524 5.333h-.691v4.03c0 .168.159.305.351.305.193 0 .352-.137.352-.304v-4.03h-.012Z"/><path fill="#FCD53F" d="m22.333 2.369.47.96c.022.047.068.081.125.092l1.064.15a.166.166 0 0 1 .091.285l-.766.744a.17.17 0 0 0-.046.149l.183 1.052a.162.162 0 0 1-.24.172l-.961-.492a.195.195 0 0 0-.16 0l-.95.503c-.114.057-.252-.045-.229-.183l.183-1.052a.17.17 0 0 0-.045-.15l-.767-.743c-.103-.091-.046-.263.091-.286l1.053-.149a.177.177 0 0 0 .126-.091l.47-.961a.174.174 0 0 1 .308 0Z"/><path fill="#FF6723" d="m12.806 22.008-.005-5.998h5.522c.015.243.036.462.067.681.098.695.292 1.371.681 2.724l.333 1.157-2.364.527-1.108-2.705c-.1-.244-.461-.187-.481.077l-.265 3.537h-2.38ZM16.529 10.8c.534.004.994.07 1.57.32a.995.995 0 0 1 .175.555l.02 1.855a.08.08 0 0 0-.002.014v.342c0 .906 0 1.52.026 2.029l.001.085h-5.518l-.001-1.605c0-.109 0-.173-.019-.207v-2.453c0-.263.102-.502.268-.68.004-.003.009-.005.013-.006.473-.195.96-.243 1.467-.249l.647 1.227a.4.4 0 0 0 .708 0l.645-1.227Z"/><path fill="#C3EF3C" d="m12.802 16.408-.001-.834h5.504c.009.313.024.58.05.834h-5.553Z"/><path fill="#AB6A55" d="m15.365 8.005-.22.71c-.04.15.07.3.22.3h.33c.15 0 .26-.15.22-.29l-.22-.71c-.06-.17-.28-.17-.33-.01Z"/><path fill="#990838" d="M15.53 9.35c-.23 0-.44-.05-.62-.15-.06-.03-.13.04-.09.1.16.23.42.38.71.38.3 0 .56-.15.71-.38.04-.06-.03-.13-.09-.1-.18.09-.39.15-.62.15Z"/><path fill="#fff" d="M13.918 7.86a.601.601 0 0 1 1.17.02c.01.06-.04.12-.1.12h-.95c-.07 0-.13-.07-.12-.14Zm3.205 0a.6.6 0 0 0-.58-.45c-.29 0-.53.2-.58.47-.01.06.04.12.1.12h.95c.07 0 .13-.07.11-.14Z"/><path fill="#7D4533" d="M14.208 7.9c0-.21.17-.38.38-.38s.38.17.37.38c0 .03 0 .07-.01.1h-.73c0-.015-.002-.032-.005-.05-.002-.017-.005-.035-.005-.05Zm2.625 0a.38.38 0 0 0-.38-.38c-.21 0-.38.17-.37.38 0 .03 0 .07.01.1h.73c0-.015.003-.032.005-.05a.376.376 0 0 0 .005-.05Z"/><path fill="#000" d="M14.588 7.68c.12 0 .22.1.22.22 0 .04-.01.07-.04.1h-.38a.296.296 0 0 1-.02-.1c0-.12.1-.22.22-.22Zm1.875 0c-.12 0-.22.1-.22.22 0 .04.01.07.04.1h.38c.01-.03.02-.06.02-.1 0-.12-.1-.22-.22-.22Z"/><path fill="#fff" d="M14.528 7.75a.07.07 0 1 1-.14 0 .07.07 0 0 1 .14 0Zm1.885 0a.07.07 0 1 1-.14 0 .07.07 0 0 1 .14 0Z"/><path fill="#593B39" d="m17.122 6.814-.001-.002-.004-.003-.013-.008a1.145 1.145 0 0 0-.207-.106 1.18 1.18 0 0 0-.569-.074.117.117 0 0 0 .028.232.946.946 0 0 1 .617.141l.008.005a.117.117 0 0 0 .141-.185Zm-3.027.176Zm0 0 .003-.003a.52.52 0 0 1 .127-.07c.099-.038.263-.074.507-.047a.117.117 0 1 0 .026-.232 1.298 1.298 0 0 0-.617.062.753.753 0 0 0-.205.119l-.004.003v.002h-.002s.139.137 0 0a.117.117 0 0 0 .165.165Z"/></svg>
